glass/images/features4.svg

<svg width="102" height="121" viewBox="0 0 102 121" fill="none" xmlns="http://www.w3.org/2000/svg">
<path d="M25.5062 6.99421C28.6336 4.29655 31.6286 3.1099 35.2156 3.1099C39.0458 3.1099 43.3626 4.40467 49.1067 6.53469C50.2933 6.96718 51.561 7.18342 52.8558 7.18342C56.0103 7.18342 59.0323 5.94271 61.9192 4.72904C64.698 3.56942 67.3416 2.46387 69.9068 2.46387C71.1475 2.46387 72.8991 2.68011 75.1129 4.24519L62.1625 34.479H39.6135L25.5062 6.99421ZM81.611 119.315H20.3812C10.1041 119.315 1.74081 110.951 1.74081 100.674C1.74081 83.3856 8.07951 66.9807 20.5434 51.9327C28.4201 42.4125 36.432 36.5036 38.8593 34.7763H63.0815C65.5359 36.4766 73.5181 42.4098 81.3948 51.9327C93.8857 66.9807 100.197 83.3586 100.197 100.674C100.254 110.954 91.8908 119.315 81.611 119.315Z" fill="url(#paint0_linear)" stroke="url(#paint1_linear)" stroke-width="3" stroke-miterlimit="10" stroke-linejoin="round"/>
<path d="M55.3669 77.4758H47.947C45.2493 77.4758 43.0625 75.289 43.0625 72.5913C43.0625 69.8937 45.2493 67.7069 47.947 67.7069H61.0028C62.7841 67.7069 64.2411 66.2553 64.2411 64.474C64.2411 62.6927 62.7841 61.2357 61.0028 61.2357H54.8804V56.7297C54.8804 54.9484 53.4234 53.4941 51.6421 53.4941C49.8635 53.4941 48.4065 54.9511 48.4065 56.7297V61.2357H47.9497C41.6921 61.2357 36.5914 66.3337 36.5914 72.5913C36.5914 78.8516 41.6894 83.9469 47.9497 83.9469H55.3696C58.0673 83.9469 60.2514 86.1337 60.2514 88.8313C60.2514 91.529 58.0673 93.7158 55.3696 93.7158H42.0705C40.2892 93.7158 38.8349 95.1727 38.8349 96.9514C38.8349 98.73 40.2919 100.187 42.0705 100.187H48.4362V104.801C48.4362 106.58 49.8932 108.037 51.6745 108.037C53.4558 108.037 54.9128 106.58 54.9128 104.801V100.187H55.4507C55.4777 100.187 55.5048 100.187 55.5318 100.187C61.7353 100.109 66.7279 95.0349 66.7279 88.8313C66.7225 82.5764 61.6245 77.4758 55.3669 77.4758Z" fill="white"/>
<defs>
<linearGradient id="paint0_linear" x1="50.9692" y1="2.46387" x2="50.9692" y2="152.983" gradientUnits="userSpaceOnUse">
<stop/>
<stop offset="0.886686" stop-color="#0047FF"/>
<stop offset="1" stop-color="#0047FF"/>
<stop offset="1" stop-color="white" stop-opacity="0"/>
</linearGradient>
<linearGradient id="paint1_linear" x1="50.9692" y1="2.46387" x2="50.9692" y2="119.315" gradientUnits="userSpaceOnUse">
<stop/>
<stop offset="1" stop-color="#0047FF"/>
</linearGradient>
</defs>
</svg>

<svg width="102" height="121" viewBox="0 0 102 121" fill="none" xmlns="http://www.w3.org/2000/svg"><path d="M25.506 6.994c3.128-2.697 6.123-3.884 9.71-3.884 3.83 0 8.147 1.295 13.89 3.425 1.187.432 2.455.648 3.75.648 3.154 0 6.176-1.24 9.063-2.454 2.779-1.16 5.423-2.265 7.988-2.265 1.24 0 2.992.216 5.206 1.781L62.163 34.48h-22.55L25.507 6.994zm56.105 112.321h-61.23c-10.277 0-18.64-8.364-18.64-18.641 0-17.288 6.339-33.693 18.802-48.741 7.877-9.52 15.889-15.43 18.316-17.157h24.222c2.455 1.7 10.437 7.634 18.314 17.157 12.49 15.048 18.802 31.426 18.802 48.741.057 10.28-8.306 18.641-18.586 18.641z" fill="url(#a)" stroke="url(#b)" stroke-width="3" stroke-miterlimit="10" stroke-linejoin="round"/><path d="M55.367 77.476h-7.42a4.884 4.884 0 1 1 0-9.77h13.056a3.243 3.243 0 0 0 3.238-3.232 3.248 3.248 0 0 0-3.238-3.238H54.88V56.73a3.245 3.245 0 0 0-3.238-3.236 3.246 3.246 0 0 0-3.236 3.236v4.506h-.456c-6.258 0-11.359 5.098-11.359 11.355 0 6.26 5.098 11.356 11.359 11.356h7.42a4.882 4.882 0 0 1 4.881 4.884 4.882 4.882 0 0 1-4.881 4.885h-13.3a3.245 3.245 0 0 0-3.235 3.235 3.246 3.246 0 0 0 3.236 3.236h6.365v4.614a3.247 3.247 0 0 0 3.239 3.236 3.247 3.247 0 0 0 3.238-3.236v-4.614h.618c6.204-.078 11.197-5.152 11.197-11.356-.005-6.255-5.103-11.355-11.361-11.355z" fill="#fff"/><defs><linearGradient id="a" x1="50.969" y1="2.464" x2="50.969" y2="152.983" gradientUnits="userSpaceOnUse"><stop/><stop offset=".887" stop-color="#0047FF"/><stop offset="1" stop-color="#0047FF"/><stop offset="1" stop-color="#fff" stop-opacity="0"/></linearGradient><linearGradient id="b" x1="50.969" y1="2.464" x2="50.969" y2="119.315" gradientUnits="userSpaceOnUse"><stop/><stop offset="1" stop-color="#0047FF"/></linearGradient></defs></svg>
